X:1
T:Title
%%score { ( 1 4 ) | ( 2 3 ) }
L:1/8
M:4/4
K:A
V:1 treble nm="Grand Piano"
V:4 treble 
V:2 bass 
V:3 bass 
V:1
 z4 z2[Q:1/4=116] [CE]2 | [CE]2 [CF]2 [CE]2 [A,C]>[B,D] | [CE]2 [CF]2 [CE]2 [A,C]>[B,D] | %3
 [CE]2 [Ec]2 [Ec]2 [DB]2 |[M:3/4] [CA]6 |[M:1/4] [EA]>G |[M:4/4] [A,DF]2 [FA]2 [Fd]2 [FA]>F | %7
 [CE]2 [CA]2 [Ec]2 [Ec]>[Ec] | [^Dc]2 [DB]2 [DF]2 [AB]2 |[M:3/4] [EGB]6[K:bass] | %10
[M:1/4][K:treble] z F |[M:4/4] G2 =G2 ^G2 GA | [DGB]2 [C=G^A]2 [D^GB]2 E-[E=A] | %13
 [DGB]2 [C=G^A]2 [D^GB]2 [=Gc]2 |[M:3/4] [Gd]6[K:bass] |[M:1/4][K:treble] [Ed]2 | %16
[M:4/4] z2 [Ec]2[K:bass][K:treble] z4 |[M:5/4] A2 [=GA]2 [=CFA]2 ^G>F- F2 |[M:4/4] E2 F2 G2 B2 | %19
[M:3/4] [CA]6 |[M:1/4] [A,C]>[B,D] |[M:4/4] [CE]2 [CF]>[CF] [CE]2 [A,C]>[B,D] | %22
 [CE]2 [CF]>[CF] [CE]2 [A,C]>[B,D] | [CE]2 c2 c2 B2 |[M:3/4] A6[K:bass] | %25
[M:1/4][K:treble] [=GA]3/2 z/ |[M:4/4] [DFA]2 [DF]>[EG] [FA]2 [FA]>[^EB] | %27
 [Ec]2 [CA]>[DB] [Ec]2 [Ec]>[Ed] | [Ee]2 [Fd]2 [Ec]2 [DB]2 |[M:3/4] [CA]6 |] %30
V:2
 z4 z2 [A,,A,]2 | [A,,A,]2 [A,,E,]2 [A,,A,]2 [A,,E,]2 | [A,,A,]2 [A,,E,]2 [A,,A,]2 [A,,E,]2 | %3
 [A,,A,]2 [E,,E,]2 [F,,F,]2 [G,,G,]2 |[M:3/4] [A,,A,]2 E,2 A,,2 |[M:1/4] z z/ E/ | %6
[M:4/4] z2 D2 A,-[E,A,-] [F,A,-]>[A,D] | A,2 E,C, A,,2 [A,,A,]2 | [B,,A,]4 z2 ^D2 | %9
[M:3/4] E,2 B,,2 E,,2 |[M:1/4] G,A, |[M:4/4] z4 z2 .B,2 | E,2 E,2 E,2 z C | E,2 E,2 E,2 [E,^A,]2 | %14
[M:3/4] [E,B,]2 B,,2 E,,2 |[M:1/4] [F,,F,][G,,G,] |[M:4/4] z4 G,4 | %17
[M:5/4] [F,A,C]2 [E,A,C]2 z2 =C4 |[M:4/4] C2 C2 [E,B,D]2 [E,D]2 |[M:3/4] [A,,E,]6 | %20
[M:1/4] [A,,E,]2 |[M:4/4] [A,,A,]2 [A,,E,]2 [A,,A,]2 [A,,E,]2 | %22
 [A,,A,]2 [A,,E,]2 [A,,A,]2 [A,,E,]2 | [A,,A,]2 [E,E]2 [F,E]2 [G,D]2 |[M:3/4] [A,C]6 | %25
[M:1/4] z z/ =G/ |[M:4/4] D,2 [D,A,]2 [D,D]2 [D,A,]2 | [A,,A,]2 [A,,E,]2 [A,,A,]2 [A,,A,]>[B,,G,] | %28
 [C,A,]2 [D,A,]2 [E,A,]2 [E,G,]2 |[M:3/4] [A,,A,]6 |] %30
V:3
 x8 | x8 | x8 | x8 |[M:3/4] x6 |[M:1/4] [C,A,]2 |[M:4/4] D,4 .D,2 z G, | x8 | z4 [B,,A,]4 | %9
[M:3/4] x6 |[M:1/4] E,2 |[M:4/4] [E,B,E]2 [E,^A,E]2 [E,B,E]2 [E,E]-[E,CE] | z4 z2 E,2 | x8 | %14
[M:3/4] x6 |[M:1/4] x2 |[M:4/4] [A,,A,]2 .[A,,A,]2 [E,E]2 [^E,D]2 |[M:5/4] z4 [^D,A,]6 | %18
[M:4/4] [E,A,]4 z4 |[M:3/4] x6 |[M:1/4] x2 |[M:4/4] x8 | x8 | x8 |[M:3/4] x6 |[M:1/4] C,2 | %26
[M:4/4] x8 | x8 | x8 |[M:3/4] x6 |] %30
V:4
 x8 | x8 | x8 | x8 |[M:3/4] x6 |[M:1/4] x2 |[M:4/4] x8 | x8 | x8 |[M:3/4] z2[K:bass] B,2 E,2 | %10
[M:1/4][K:treble] E2 |[M:4/4] x8 | z4 z2 .[B,G]2 | x8 |[M:3/4] z2[K:bass] B,2 E,2 | %15
[M:1/4][K:treble] x2 |[M:4/4] [Ec]2 z[K:bass] C,[K:treble] B2 cB |[M:5/4] x10 |[M:4/4] x8 | %19
[M:3/4] x6 |[M:1/4] x2 |[M:4/4] x8 | x8 | x8 |[M:3/4] z2[K:bass] E,2 A,,2 | %25
[M:1/4][K:treble] E->[EA] |[M:4/4] x8 | x8 | x8 |[M:3/4] x6 |] %30

